X:760
T:Fear A'Bhata #1 
C:Joe Buchanan's Scottish Tome - Page 526.2
I:526 2
Z:Carl Allison
R:Slow Air
L:1/4
M:3/4
K:F
"C7" C2 D | "F"F3 | "F"F2 c | "Am"A> G F | "C"E3 | "C"G3 | "Dm"A2 D | D3 |
D2 F | E2 D | C3 | A,3 | "F7"A,2 C | "Bb"D3 | "Bb"D3 | "F"C2 D |
"F" F3 | "C"G2 A | "Gm"d2 c | "Am"A3 | "Gm"G2 F | "A7"F2 E | "Dm"D3- | "Dm"D2 |

